X:1
T:Title
%%score { ( 1 4 ) | ( 2 3 ) }
L:1/8
Q:1/4=112
M:4/4
K:G
V:1 treble nm="Grand Piano"
V:4 treble 
V:2 bass 
V:3 bass 
V:1
 B2 A>B G2 E2 | D6 D2 | G3 G [FA]2 [F_B]2 |[M:3/4] B6 |[M:1/4] B2 |[M:4/4] [DB]2 [DF]2 G2 E2 | %6
w: D.~B.~Towner * * * *||||||
 [^DB]4 [=Dc]4 | B4 B2 G2 | A4 G4 | [Fd]2 [FA]>[GB] [Ac]2 [GB][FA] | B2 G>E D4 | F2 G>G A2 FF | %12
w: ||||||
 G2 [EA]2 z4 | B2 B>c d2 [DG][DG] | z2 B2 z4 | B2 A>G d2 [DG][EGc] | [DGB] [DGB]2 [CFA] [G,B,G]4 |] %17
w: |||||
V:2
 [G,D]2 [G,C]>[G,D] [G,B,D]2 [G,C]2 | [G,B,]6 [G,B,]2 | [E,B,E]3 [E,B,E] [D,D]2 [D,D]2 | %3
[M:3/4][K:treble] [G,DG]6 |[M:1/4] [G,D]2 |[M:4/4][K:bass] [B,,F,]2 [B,,A,]2 [E,G,E]2 [C,G,]2 | %6
 F,4- [A,,F,]4 | [D,G,D]4 [D,G,D]2 [D,B,D]2 | [D,CD]4 [G,B,D]4 | %9
 [D,A,]2 [D,D]>[D,D] [D,D]2 [D,D][D,D] | [G,DG]2 [G,B,D]>[K:bass][G,C] [G,B,]4 | %11
 [D,A,D]2 [D,B,D]>[D,B,D] [D,CD]2 [D,CD][D,C] | .[E,B,E]2 .[C,G,]2 [B,,F,]4 | %13
 [G,D]2 [G,D]>[G,A,D] [G,B,D]2 [B,,G,][B,,G,] | [D,F,D]2 .[G,D]2 [C,G,]4 | %15
 [G,D]2 [G,CD]>[G,B,D] [G,B,G]2[K:bass] B,,C, | D, D,2 D, G,,4 |] %17
V:3
 x8 | x8 | x8 |[M:3/4][K:treble] x6 |[M:1/4] x2 |[M:4/4][K:bass] x8 | B,,4 z4 | x8 | x8 | x8 | %10
 x7/2[K:bass] x9/2 | x8 | x8 | x8 | x8 | x6[K:bass] x2 | x8 |] %17
V:4
 x8 | x8 | x8 |[M:3/4] x6 |[M:1/4] x2 |[M:4/4] x8 | x8 | x8 | x8 | x8 | x8 | x8 | %12
 z A, z E, [^DB]4 | x8 | A2 z =F [Ec]4 | x8 | x8 |] %17

